src/assets/CarFill.svg

<svg width="60" height="22" viewBox="0 0 60 22" fill="none" xmlns="http://www.w3.org/2000/svg">
<path d="M58.4141 12.9215L58.0002 12.6729C57.0216 12.0891 55.9406 11.7388 54.8254 11.622C54.6888 11.6103 54.5522 11.6805 54.4954 11.8205C54.4383 11.949 54.4613 12.1008 54.5636 12.2059C55.1212 12.7547 55.5651 13.4085 55.8608 14.1441C56.0542 14.6229 56.4413 14.9848 56.9078 15.1365C57.3806 15.2753 57.8869 15.208 58.3164 14.9463C58.3607 14.5358 58.438 13.6849 58.4141 12.9215Z" fill="#C2E1FF"/>
<path d="M58.318 14.9393C57.8861 15.2069 57.3745 15.2765 56.8973 15.1366C56.4307 14.9849 56.0438 14.623 55.8503 14.1442C55.5546 13.4086 55.1107 12.7548 54.5531 12.2061C54.4506 12.1009 54.4279 11.9491 54.4849 11.8206C54.5418 11.6806 54.6784 11.6104 54.8148 11.6221C55.9301 11.7389 57.0112 12.0892 57.9897 12.673L58.4154 12.9286C58.4126 12.8406 58.4086 12.7537 58.4031 12.6687C58.3209 12.2449 58.2527 12.0084 58.0352 11.6104C56.1804 8.21279 43.4467 6.71828 39.7598 6.47295L35.0942 3.22713C33.0117 1.77927 30.5537 1.05534 28.0388 1.13699C20.5739 1.37065 11.9028 3.0753 5.18878 6.43796C4.4036 6.83491 3.56152 7.06858 2.68529 7.1269L2.60564 8.66807C2.53736 9.91745 2.28701 11.1668 1.85459 12.346C1.37664 13.6537 1.53596 15.1249 2.26426 16.3043C3.00392 17.4835 4.24429 18.2308 5.59844 18.3359H53.7337L56.6584 18.1608C57.2387 18.1258 57.7622 17.7872 58.0352 17.2617L58.3004 15.0956C58.3054 15.0545 58.3114 15.0019 58.318 14.9393Z" fill="#FE0000"/>
<path d="M2.61713 8.51641L2.60576 8.66804C2.53748 9.91742 2.28713 11.1668 1.85471 12.346C1.82057 12.4395 1.78643 12.5328 1.76367 12.638C2.51472 12.7898 3.26577 12.4745 3.53888 11.8674C3.66405 11.5754 3.78923 11.2836 3.90302 10.9916C4.2444 10.1276 3.81198 9.14684 2.85611 8.64471L2.61713 8.51641Z" fill="#330000"/>
<path d="M2.59386 8.9026C2.50283 10.0585 2.26387 11.2027 1.87695 12.3002C2.38904 12.3821 3.00353 12.2186 3.23113 11.7165C3.3563 11.4362 3.47009 11.1444 3.58388 10.8524C3.89112 10.0701 3.37906 9.31122 2.69629 8.94926L2.59386 8.9026Z" fill="#F05927"/>
<path d="M39.5315 7.16406L34.7068 3.80141C32.7608 2.44705 30.4167 1.74645 28.0611 1.8281C22.7582 2.00325 16.8749 2.90233 11.5038 4.63031C11.1396 4.74714 10.9121 5.08578 10.9121 5.47107C10.9121 5.85636 11.1624 6.18334 11.5265 6.28831C11.5722 6.29997 11.6177 6.31183 11.6631 6.3235C19.1168 6.79043 30.7922 6.75544 39.5315 7.16406Z" fill="#330000"/>
<path d="M23.613 2.50295C20.9843 2.77141 18.3442 3.21522 15.7725 3.82232L15.4197 3.97414C15.1581 4.07911 15.0215 4.37109 15.0897 4.65141C15.1808 5.06003 15.2377 5.46865 15.2604 5.88894C15.2718 6.00577 15.3402 6.09908 15.4425 6.13426C16.6942 6.18092 17.9346 6.21591 19.1863 6.2509C20.7909 6.29756 22.3954 6.33274 23.9886 6.36773L23.613 2.50295ZM35.8346 5.03671L34.5031 4.1143C32.6256 2.8066 30.3383 2.12933 28.0738 2.19931C27.061 2.2343 26.0368 2.29281 25.0128 2.37446L26.0938 6.40272L27.812 6.43771C30.3269 6.48456 32.8418 6.54288 35.3453 6.61286C35.7321 6.62453 36.0622 6.39106 36.176 6.01743C36.2783 5.65547 36.1533 5.25851 35.8346 5.03671Z" fill="#C2E1FF"/>
<path d="M23.9773 6.22761L23.9089 6.36776C22.3273 6.33277 20.7569 6.29759 19.1751 6.25093C18.7314 6.23927 18.2875 6.22761 17.8438 6.21594L19.3003 3.11009C20.7341 2.86495 22.1793 2.65481 23.6131 2.51465L23.9773 6.22761ZM25.798 2.31617C25.5361 2.3395 25.2745 2.35117 25.0129 2.37449L25.2859 3.41373L25.798 2.31617ZM33.1378 3.30856C31.9656 2.72479 30.6798 2.36283 29.3825 2.24619L27.4252 6.43775L27.7894 6.44941C29.0639 6.47274 30.3497 6.49626 31.6242 6.53125L33.1378 3.30856Z" fill="#D8EAFC"/>
<path d="M5.2675 18.3009C5.38129 18.3243 5.4951 18.3359 5.60888 18.3359H13.768C13.9842 17.7872 14.1094 17.1801 14.1094 16.5494C14.1094 13.9574 12.061 11.8441 9.52338 11.8441C6.99714 11.8441 4.9375 13.9457 4.9375 16.5494C4.9375 17.1682 5.05129 17.7522 5.2675 18.3009Z" fill="#330000"/>
<path d="M44.9156 18.3359H53.4049C53.6211 17.7872 53.7463 17.1801 53.7463 16.5494C53.7463 13.9574 51.6979 11.8441 49.1603 11.8441C46.634 11.8441 44.5742 13.9457 44.5742 16.5494C44.5742 17.1801 44.6995 17.7872 44.9156 18.3359Z" fill="#330000"/>
<path d="M57.0218 12.5698C57.3291 12.5698 57.5794 13.0134 57.5794 13.5505C57.5794 14.0993 57.3291 14.5312 57.0218 14.5312C56.7145 14.5312 56.4642 14.0876 56.4642 13.5505C56.4642 13.0017 56.7145 12.5698 57.0218 12.5698ZM55.7473 12.1143C55.9407 12.1143 56.1001 12.3128 56.1001 12.5698C56.1001 12.8149 55.9407 13.0251 55.7473 13.0251C55.5539 13.0251 55.3945 12.8266 55.3945 12.5698C55.3945 12.3128 55.5539 12.1143 55.7473 12.1143Z" fill="#D8EAFC"/>
<path d="M27.1285 17.4492H26.9465C27.0376 13.7946 26.423 10.2218 25.103 6.82395L24.9551 6.43865L25.1258 6.36867L25.2737 6.75397C26.5937 10.1633 27.2197 13.7713 27.1285 17.4492Z" fill="#330000"/>
<path d="M39.5088 17.5312H16.8749C16.3742 17.5312 15.9532 17.1343 15.9191 16.6324C15.5322 11.67 11.6404 10.4556 11.5949 10.444L11.5381 10.4323L10.9121 5.46998L11.0942 5.44665L11.6972 10.2922C12.1866 10.4673 15.7257 11.8568 16.0898 16.6207C16.1239 17.0293 16.4653 17.3563 16.8749 17.3563H39.5088C40.3509 17.3563 41.0337 16.679 41.0678 15.8266C41.1247 14.3321 41.0906 11.7517 40.5671 7.95688L40.7492 7.93356C41.2726 11.7517 41.3067 14.3437 41.2499 15.8383C41.2044 16.784 40.4419 17.5312 39.5088 17.5312Z" fill="#330000"/>
<path d="M13.1087 9.03072C12.9039 9.03072 12.7446 9.1942 12.7446 9.40434C12.7446 9.61449 12.9039 9.77798 13.1087 9.77798H14.918C15.1228 9.77798 15.2822 9.61449 15.2822 9.40434C15.2822 9.1942 15.1228 9.03072 14.918 9.03072H13.1087ZM14.918 9.95312H13.1087C12.813 9.95312 12.5625 9.70799 12.5625 9.39268C12.5625 9.07757 12.8016 8.83224 13.1087 8.83224H14.918C15.214 8.83224 15.4642 9.07757 15.4642 9.39268C15.4642 9.70799 15.214 9.95312 14.918 9.95312Z" fill="#330000"/>
<path d="M27.6634 9.03072C27.4586 9.03072 27.2993 9.1942 27.2993 9.40434C27.2993 9.61449 27.4586 9.77798 27.6634 9.77798H29.4727C29.6777 9.77798 29.8369 9.61449 29.8369 9.40434C29.8369 9.1942 29.6777 9.03072 29.4727 9.03072H27.6634ZM29.4727 9.95312H27.6634C27.3676 9.95312 27.1172 9.70799 27.1172 9.39268C27.1172 9.07757 27.3563 8.83224 27.6634 8.83224H29.4727C29.7687 8.83224 30.0189 9.07757 30.0189 9.39268C30.0189 9.70799 29.78 9.95312 29.4727 9.95312Z" fill="#330000"/>
<path d="M54.6097 11.6367C54.5529 11.6134 48.7494 9.25498 40.6358 8.02893H40.6129L38.9629 7.03635L39.5318 7.16484L40.6813 7.85378C48.8062 9.07983 54.7804 11.5084 54.8374 11.5317L54.6097 11.6367Z" fill="#330000"/>
<path d="M57.4437 15.2891H53.4837L53.4609 15.1022H56.7609L57.4437 15.2891Z" fill="#330000"/>
<path d="M9.52481 20.8711C11.8462 20.8711 13.7353 18.9328 13.7353 16.5508C13.7353 14.1689 11.8462 12.2308 9.52481 12.2308C7.20337 12.2308 5.31445 14.1689 5.31445 16.5508C5.31445 18.9328 7.20337 20.8711 9.52481 20.8711Z" fill="black"/>
<path d="M9.52346 19.3047C11.0029 19.3047 12.209 18.067 12.209 16.5491C12.209 15.0313 11.0029 13.7936 9.52346 13.7936C8.04417 13.7936 6.83789 15.0313 6.83789 16.5491C6.83789 18.067 8.04417 19.3047 9.52346 19.3047Z" fill="white"/>
<path d="M9.5241 17.8008C10.1955 17.8008 10.7418 17.2403 10.7418 16.5514C10.7418 15.8625 10.1955 15.302 9.5241 15.302C8.85285 15.302 8.30664 15.8625 8.30664 16.5514C8.30664 17.2403 8.85285 17.8008 9.5241 17.8008Z" fill="black"/>
<path d="M10.2188 16.9492L12.7564 16.8326V16.2721L10.2188 16.1553V16.9492Z" fill="black"/>
<path d="M10.2864 16.3164L11.9933 14.4014L11.6064 14.0045L9.74023 15.756L10.2864 16.3164Z" fill="black"/>
<path d="M9.9007 15.8398L9.78703 13.2361H9.24082L9.12695 15.8398H9.9007Z" fill="black"/>
<path d="M9.2962 15.7677L7.43003 14.0162L7.04297 14.4133L8.74999 16.3281L9.2962 15.7677Z" fill="black"/>
<path d="M8.81915 16.167L6.29297 16.2839V16.8443L8.81915 16.9609V16.167Z" fill="black"/>
<path d="M8.76136 16.7857L7.04297 18.7007L7.43003 19.0977L9.30757 17.3462L8.76136 16.7857Z" fill="black"/>
<path d="M9.13672 17.2751L9.25058 19.8672H9.79679L9.91047 17.2751H9.13672Z" fill="black"/>
<path d="M9.75195 17.3345L11.6181 19.0977L12.005 18.7007L10.2982 16.774L9.75195 17.3345Z" fill="black"/>
<path d="M49.1596 20.8711C51.481 20.8711 53.3699 18.9328 53.3699 16.5508C53.3699 14.1689 51.481 12.2308 49.1596 12.2308C46.8381 12.2308 44.9492 14.1689 44.9492 16.5508C44.9492 18.9328 46.8381 20.8711 49.1596 20.8711Z" fill="black"/>
<path d="M49.1582 19.3047C50.6375 19.3047 51.8438 18.067 51.8438 16.5491C51.8438 15.0313 50.6375 13.7936 49.1582 13.7936C47.6789 13.7936 46.4727 15.0313 46.4727 16.5491C46.4727 18.067 47.6789 19.3047 49.1582 19.3047Z" fill="white"/>
<path d="M49.1591 17.8008C49.8305 17.8008 50.3767 17.2403 50.3767 16.5514C50.3767 15.8625 49.8305 15.302 49.1591 15.302C48.4876 15.302 47.9414 15.8625 47.9414 16.5514C47.9414 17.2403 48.4876 17.8008 49.1591 17.8008Z" fill="black"/>
<path d="M49.8535 16.9492L52.3911 16.8326V16.2721L49.8535 16.1553V16.9492Z" fill="black"/>
<path d="M49.9212 16.3164L51.6282 14.4014L51.2414 14.0045L49.375 15.756L49.9212 16.3164Z" fill="black"/>
<path d="M49.5355 15.8398L49.4216 13.2361H48.8754L48.7617 15.8398H49.5355Z" fill="black"/>
<path d="M48.931 15.7677L47.0532 14.0162L46.6777 14.4133L48.3848 16.3281L48.931 15.7677Z" fill="black"/>
<path d="M48.454 16.167L45.9277 16.2839V16.8443L48.454 16.9609V16.167Z" fill="black"/>
<path d="M48.3961 16.7857L46.6777 18.7007L47.0646 19.0977L48.9423 17.3462L48.3961 16.7857Z" fill="black"/>
<path d="M48.7715 17.2751L48.8852 19.8672H49.4316L49.5452 17.2751H48.7715Z" fill="black"/>
<path d="M49.375 17.3345L51.2527 19.0977L51.6396 18.7007L49.9326 16.774L49.375 17.3345Z" fill="black"/>
<path d="M58.3172 14.9403C57.8852 15.208 57.3737 15.2776 56.8964 15.1376C56.4298 14.986 56.0429 14.6241 55.8495 14.1453C55.5537 13.4097 55.1098 12.7559 54.5523 12.2071C54.4498 12.102 54.427 11.9501 54.4841 11.8217C54.5409 11.6817 54.6775 11.6115 54.8139 11.6232C55.9292 11.74 57.0103 12.0903 57.9888 12.6741L58.4146 12.9297C58.4117 12.8416 58.4077 12.7546 58.4022 12.6696L58.0913 12.4873C57.1012 11.8918 55.9974 11.5299 54.8255 11.413C54.8139 11.413 54.7912 11.413 54.7798 11.413C54.5636 11.413 54.3702 11.5415 54.2906 11.74C54.1995 11.9501 54.245 12.1953 54.4043 12.3588C54.9505 12.8959 55.3717 13.5265 55.656 14.2271C55.8722 14.764 56.3047 15.1612 56.8396 15.3363C57.0217 15.383 57.2037 15.418 57.3858 15.418C57.6931 15.418 58.0029 15.3363 58.2874 15.1962L58.2996 15.0964C58.3045 15.0554 58.3105 15.0027 58.3172 14.9403Z" fill="#330000"/>
</svg>

<svg xmlns="http://www.w3.org/2000/svg" width="60" height="22" fill="none" viewBox="0 0 60 22"><path fill="#c2e1ff" d="m58.414 12.922-.414-.25a7.76 7.76 0 0 0-3.175-1.05.32.32 0 0 0-.33.198.35.35 0 0 0 .069.386 5.7 5.7 0 0 1 1.297 1.938c.193.479.58.84 1.047.992.473.14.979.072 1.408-.19.045-.41.122-1.261.098-2.024"/><path fill="#fe0000" d="M58.318 14.94a1.75 1.75 0 0 1-1.42.197 1.71 1.71 0 0 1-1.048-.993 5.7 5.7 0 0 0-1.297-1.938.35.35 0 0 1-.068-.385.32.32 0 0 1 .33-.199 7.76 7.76 0 0 1 3.175 1.051l.425.256a8 8 0 0 0-.012-.26c-.082-.424-.15-.66-.368-1.059C56.18 8.213 43.447 6.718 39.76 6.473l-4.666-3.246a11.65 11.65 0 0 0-7.055-2.09c-7.465.234-16.136 1.938-22.85 5.301a6.5 6.5 0 0 1-2.504.689l-.08 1.541a12.7 12.7 0 0 1-.75 3.678 4.58 4.58 0 0 0 .41 3.958 4.34 4.34 0 0 0 3.333 2.032h48.136l2.924-.175a1.67 1.67 0 0 0 1.377-.9l.265-2.165z"/><path fill="#300" d="m2.617 8.516-.011.152a12.7 12.7 0 0 1-.751 3.678c-.034.094-.069.187-.091.292.75.152 1.502-.163 1.775-.77.125-.293.25-.584.364-.876.341-.864-.091-1.845-1.047-2.347z"/><path fill="#f05927" d="M2.594 8.903c-.091 1.156-.33 2.3-.717 3.397.512.082 1.127-.081 1.354-.584.125-.28.24-.572.353-.864.307-.782-.205-1.54-.888-1.903z"/><path fill="#300" d="m39.532 7.164-4.825-3.363a11 11 0 0 0-6.646-1.973c-5.303.175-11.186 1.074-16.557 2.802a.86.86 0 0 0-.592.841c0 .385.25.712.614.817l.137.035c7.454.467 19.13.432 27.869.841"/><path fill="#c2e1ff" d="M23.613 2.503a61 61 0 0 0-7.84 1.32l-.353.151a.58.58 0 0 0-.33.677c.09.409.148.818.17 1.238.012.117.08.21.183.245 1.251.047 2.492.082 3.743.117 1.605.047 3.21.082 4.803.117zm12.222 2.534-1.332-.923a10.75 10.75 0 0 0-6.43-1.915 68 68 0 0 0-3.06.175l1.08 4.029 1.719.035c2.515.047 5.03.105 7.533.175a.826.826 0 0 0 .831-.596.89.89 0 0 0-.341-.98"/><path fill="#d8eafc" d="m23.977 6.228-.068.14c-1.582-.035-3.152-.07-4.734-.117l-1.331-.035L19.3 3.11a61 61 0 0 1 4.313-.595zm1.821-3.912c-.262.024-.523.035-.785.058l.273 1.04zm7.34.993a10.6 10.6 0 0 0-3.755-1.063l-1.958 4.192.364.011c1.275.024 2.56.047 3.835.082z"/><path fill="#300" d="M5.268 18.3q.17.036.34.036h8.16a4.9 4.9 0 0 0 .341-1.787c0-2.592-2.048-4.705-4.586-4.705-2.526 0-4.585 2.102-4.585 4.705 0 .62.113 1.203.33 1.752M44.916 18.336h8.489a4.9 4.9 0 0 0 .341-1.787c0-2.592-2.048-4.705-4.586-4.705-2.526 0-4.586 2.102-4.586 4.705 0 .631.126 1.238.342 1.787"/><path fill="#d8eafc" d="M57.022 12.57c.307 0 .557.443.557.98 0 .55-.25.981-.557.981s-.558-.443-.558-.98c0-.55.25-.981.558-.981m-1.275-.456c.194 0 .353.199.353.456 0 .245-.16.455-.353.455s-.352-.198-.352-.455.159-.456.352-.456"/><path fill="#300" d="M27.129 17.45h-.183a27.3 27.3 0 0 0-1.843-10.626l-.148-.385.17-.07.149.385a27.6 27.6 0 0 1 1.854 10.695"/><path fill="#300" d="M39.509 17.531H16.875a.966.966 0 0 1-.956-.899c-.387-4.962-4.279-6.176-4.324-6.188l-.057-.012-.626-4.962.182-.023.603 4.845c.49.175 4.029 1.565 4.393 6.329a.8.8 0 0 0 .785.735h22.634c.842 0 1.525-.677 1.559-1.53.057-1.494.023-4.074-.5-7.87l.181-.022c.524 3.818.558 6.41.5 7.904-.045.946-.807 1.693-1.74 1.693"/><path fill="#300" d="M13.109 9.03a.364.364 0 0 0-.364.374c0 .21.159.374.364.374h1.809a.364.364 0 0 0 .364-.374c0-.21-.16-.373-.364-.373zm1.809.923h-1.81a.554.554 0 0 1-.546-.56c0-.315.24-.56.547-.56h1.809c.296 0 .546.245.546.56s-.25.56-.546.56M27.663 9.03a.364.364 0 0 0-.364.374c0 .21.16.374.364.374h1.81a.364.364 0 0 0 .364-.374c0-.21-.16-.373-.364-.373zm1.81.923h-1.81a.554.554 0 0 1-.546-.56c0-.315.24-.56.546-.56h1.81c.296 0 .546.245.546.56s-.239.56-.546.56M54.61 11.637c-.057-.024-5.86-2.382-13.974-3.608h-.023l-1.65-.993.569.129 1.15.689c8.124 1.226 14.098 3.654 14.155 3.678zM57.444 15.29h-3.96l-.023-.188h3.3z"/><path fill="#000" d="M9.525 20.871c2.321 0 4.21-1.938 4.21-4.32s-1.889-4.32-4.21-4.32c-2.322 0-4.21 1.938-4.21 4.32s1.888 4.32 4.21 4.32"/><path fill="#fff" d="M9.523 19.305c1.48 0 2.686-1.238 2.686-2.756s-1.206-2.755-2.686-2.755-2.685 1.237-2.685 2.755 1.206 2.756 2.685 2.756"/><path fill="#000" d="M9.524 17.8c.672 0 1.218-.56 1.218-1.249 0-.688-.547-1.249-1.218-1.249s-1.217.56-1.217 1.25c0 .688.546 1.249 1.217 1.249"/><path fill="#000" d="m10.219 16.95 2.537-.117v-.56l-2.537-.118z"/><path fill="#000" d="m10.286 16.316 1.707-1.915-.387-.396-1.866 1.751z"/><path fill="#000" d="m9.9 15.84-.113-2.604h-.546l-.114 2.604z"/><path fill="#000" d="M9.296 15.768 7.43 14.016l-.387.397 1.707 1.915z"/><path fill="#000" d="m8.82 16.167-2.527.117v.56l2.526.117z"/><path fill="#000" d="M8.761 16.786 7.043 18.7l.387.397 1.878-1.752z"/><path fill="#000" d="m9.137 17.275.114 2.592h.546l.113-2.592z"/><path fill="#000" d="m9.752 17.335 1.866 1.763.387-.397-1.707-1.927zM49.16 20.871c2.321 0 4.21-1.938 4.21-4.32s-1.889-4.32-4.21-4.32c-2.322 0-4.21 1.938-4.21 4.32s1.888 4.32 4.21 4.32"/><path fill="#fff" d="M49.158 19.305c1.48 0 2.686-1.238 2.686-2.756s-1.206-2.755-2.686-2.755-2.685 1.237-2.685 2.755 1.206 2.756 2.685 2.756"/><path fill="#000" d="M49.16 17.8c.67 0 1.217-.56 1.217-1.249 0-.688-.547-1.249-1.218-1.249s-1.218.56-1.218 1.25c0 .688.547 1.249 1.218 1.249"/><path fill="#000" d="m49.854 16.95 2.537-.117v-.56l-2.538-.118z"/><path fill="#000" d="m49.921 16.316 1.707-1.915-.387-.396-1.866 1.751z"/><path fill="#000" d="m49.536 15.84-.114-2.604h-.547l-.113 2.604z"/><path fill="#000" d="m48.931 15.768-1.878-1.752-.375.397 1.707 1.915z"/><path fill="#000" d="m48.454 16.167-2.526.117v.56l2.526.117z"/><path fill="#000" d="M48.396 16.786 46.678 18.7l.387.397 1.877-1.752z"/><path fill="#000" d="m48.772 17.275.113 2.592h.547l.113-2.592z"/><path fill="#000" d="m49.375 17.335 1.878 1.763.387-.397-1.707-1.927z"/><path fill="#300" d="M58.317 14.94a1.75 1.75 0 0 1-1.42.198 1.71 1.71 0 0 1-1.047-.993 5.7 5.7 0 0 0-1.298-1.938.35.35 0 0 1-.068-.385.32.32 0 0 1 .33-.199 7.76 7.76 0 0 1 3.175 1.051l.426.256a8 8 0 0 0-.013-.26l-.31-.183a7.8 7.8 0 0 0-3.267-1.074h-.045a.52.52 0 0 0-.49.327.57.57 0 0 0 .114.619 5.5 5.5 0 0 1 1.252 1.868 1.91 1.91 0 0 0 1.184 1.11c.182.046.364.081.546.081.307 0 .617-.082.901-.222l.013-.1z"/></svg>
